svgs/motorola_camera2.svg

<svg xmlns="http://www.w3.org/2000/svg" viewBox="0 0 24 24"><path d="M12 9.8c1.77 0 3.2 1.43 3.2 3.2 0 1.77-1.43 3.2-3.2 3.2-1.77 0-3.2-1.43-3.2-3.2 0-1.77 1.43-3.2 3.2-3.2M20 6H9V5c0-.55-.45-1-1-1H6c-.55 0-1 .45-1 1v1H4c-1.1 0-2 .9-2 2v10c0 1.1.9 2 2 2h16c1.1 0 2-.9 2-2V8c0-1.1-.9-2-2-2m-8 12c-2.76 0-5-2.24-5-5s2.24-5 5-5 5 2.24 5 5-2.24 5-5 5m7-8c-.55 0-1-.45-1-1s.45-1 1-1 1 .45 1 1-.45 1-1 1"/></svg>

<svg width="24" height="24" viewBox="0 0 24 24" fill="none" xmlns="http://www.w3.org/2000/svg">
<path d="M12 9.8C13.77 9.8 15.2 11.23 15.2 13C15.2 14.77 13.77 16.2 12 16.2C10.23 16.2 8.8 14.77 8.8 13C8.8 11.23 10.23 9.8 12 9.8ZM20 6H9V5C9 4.45 8.55 4 8 4H6C5.45 4 5 4.45 5 5V6H4C2.9 6 2 6.9 2 8L2 18C2 19.1 2.9 20 4 20H20C21.1 20 22 19.1 22 18V8C22 6.9 21.1 6 20 6ZM12 18C9.24 18 7 15.76 7 13C7 10.24 9.24 8 12 8C14.76 8 17 10.24 17 13C17 15.76 14.76 18 12 18ZM19 10C18.45 10 18 9.55 18 9C18 8.45 18.45 8 19 8C19.55 8 20 8.45 20 9C20 9.55 19.55 10 19 10Z" fill="#FFF1C0"/>
</svg>
